fs/skip_forward_10_24_filled.svg

<svg viewBox="0 0 24 24" fill="none" xmlns="http://www.w3.org/2000/svg" height="1em" width="1em">
  <path d="M21 2.25C21.5523 2.25 22 2.69772 22 3.25001V9.00005C22 9.55234 21.5523 10.0001 21 10.0001H15.75C15.1977 10.0001 14.75 9.55234 14.75 9.00005C14.75 8.44777 15.1977 8.00005 15.75 8.00005H19.1369C18.1525 6.82145 16.9286 5.88657 15.4546 5.43043C13.4401 4.80706 11.3117 4.86063 9.34883 5.59077C7.3678 6.32768 5.53848 7.82204 4.62703 9.48433C4.3615 9.9686 3.75367 10.1459 3.2694 9.88039C2.78514 9.61486 2.60782 9.00703 2.87335 8.52276C4.04829 6.37991 6.28776 4.59554 8.65155 3.71625C11.0335 2.83019 13.6152 2.76764 16.0458 3.51981C17.622 4.00755 18.9321 4.89926 20 5.97863V3.25001C20 2.69772 20.4477 2.25 21 2.25ZM9.0947 11.0611C9.48843 11.2056 9.75015 11.5805 9.75015 11.9999V19.9998C9.75015 20.552 9.30252 20.9997 8.75028 20.9998C8.19795 20.9998 7.75015 20.5521 7.75015 19.9998V14.4929C7.40387 14.7762 6.9978 15.0675 6.51465 15.3574C6.04107 15.6416 5.42681 15.488 5.14266 15.0144C4.85851 14.5409 5.01208 13.9266 5.48566 13.6424C6.68817 12.9209 7.25079 12.2411 7.76611 11.6184C7.84033 11.5288 7.91356 11.4403 7.98758 11.353C8.2589 11.0332 8.70097 10.9166 9.0947 11.0611ZM13.2417 12.6611C13.8505 11.6354 14.8639 10.9999 16.25 10.9999C17.6361 10.9999 18.6495 11.6354 19.2583 12.6611C19.822 13.6106 20 14.8222 20 16C20 17.1777 19.822 18.3893 19.2583 19.3389C18.6495 20.3645 17.6361 21 16.25 21C14.8639 21 13.8505 20.3645 13.2417 19.3389C12.678 18.3893 12.5 17.1777 12.5 16C12.5 14.8222 12.678 13.6106 13.2417 12.6611ZM14.9615 13.682C14.6658 14.1801 14.5 14.9686 14.5 16C14.5 17.0314 14.6658 17.8198 14.9615 18.318C15.212 18.74 15.5736 19 16.25 19C16.9264 19 17.288 18.74 17.5385 18.318C17.8342 17.8198 18 17.0314 18 16C18 14.9686 17.8342 14.1801 17.5385 13.682C17.288 13.2599 16.9264 12.9999 16.25 12.9999C15.5736 12.9999 15.212 13.2599 14.9615 13.682Z" fill="#212121"/>
</svg>

<svg viewBox="0 0 24 24" fill="none" xmlns="http://www.w3.org/2000/svg" height="1em" width="1em">
  <path d="M21 2.25a1 1 0 0 1 1 1V9a1 1 0 0 1-1 1h-5.25a1 1 0 0 1 0-2h3.387c-.985-1.179-2.208-2.113-3.682-2.57a9.435 9.435 0 0 0-6.106.16c-1.981.738-3.81 2.232-4.722 3.894a1 1 0 0 1-1.754-.961C4.048 6.38 6.288 4.596 8.652 3.716a11.435 11.435 0 0 1 7.394-.196c1.576.488 2.886 1.38 3.954 2.459V3.25a1 1 0 0 1 1-1ZM9.095 11.061A1 1 0 0 1 9.75 12v8a1 1 0 0 1-2 0v-5.507c-.346.283-.752.575-1.235.864a1 1 0 1 1-1.03-1.715c1.203-.721 1.766-1.4 2.281-2.024.074-.09.148-.178.222-.265a1 1 0 0 1 1.107-.292Zm4.147 1.6C13.85 11.635 14.864 11 16.25 11s2.4.635 3.008 1.661c.564.95.742 2.161.742 3.339s-.178 2.39-.742 3.339C18.65 20.365 17.636 21 16.25 21s-2.4-.636-3.008-1.661c-.564-.95-.742-2.161-.742-3.339s.178-2.39.742-3.339Zm1.72 1.021c-.296.498-.462 1.287-.462 2.318 0 1.031.166 1.82.461 2.318.251.422.613.682 1.289.682.676 0 1.038-.26 1.288-.682.296-.498.462-1.287.462-2.318 0-1.031-.166-1.82-.462-2.318-.25-.422-.612-.682-1.288-.682s-1.038.26-1.289.682Z" fill="#212121"/>
</svg>
